X: 748
T: Da xuanju
%%abc-version 2.0
%%abcx-abcm2ps-target-version 5.9.1 (29 Sep 2008)
%%abc-creator hum2abc beta
%%abcx-conversion-date 2013/10/02 07:52:30
%%abc-edited-by Helmut Schaffrath
%%humdrum-veritas 2423677855
%%humdrum-veritas-data 730650998
%%continueall 1
%%barnumbers 0
L: 1/8
M: 2/4
K: G
d d c d [I:setbarnb 1]| 
[M:3/4]ze2BA2 | 
[M:2/4]B A E G | 
[M:3/4]zA2ED2 | 
[M:2/4]e d e d | 
B e d B | 
A G E G | 
zA2ed2 |]  



